src/pos-icons/hand-right.svg

<svg height="24" viewBox="0 0 24 24" width="24" xmlns="http://www.w3.org/2000/svg"><path d="m21 6.58v12.09a3.33 3.33 0 0 1 -3.33 3.33h-6.09c-.9 0-1.75-.36-2.37-1l-6.54-6.64s1.05-1.03 1.08-1.04c.18-.16.41-.25.66-.25.18 0 .35.05.5.14.03.01 3.59 2.05 3.59 2.05v-9.93a1.25 1.25 0 0 1 1.25-1.25 1.25 1.25 0 0 1 1.25 1.25v5.84h.83v-7.92a1.25 1.25 0 0 1 1.25-1.25c.7 0 1.25.56 1.25 1.25v7.92h.84v-7.09c0-.69.55-1.25 1.25-1.25a1.25 1.25 0 0 1 1.25 1.25v7.09h.83v-4.59a1.25 1.25 0 0 1 1.25-1.25 1.25 1.25 0 0 1 1.25 1.25z"/></svg>

<?xml version="1.0" encoding="UTF-8"?><!DOCTYPE svg PUBLIC "-//W3C//DTD SVG 1.1//EN" "http://www.w3.org/Graphics/SVG/1.1/DTD/svg11.dtd"><svg xmlns="http://www.w3.org/2000/svg" xmlns:xlink="http://www.w3.org/1999/xlink" version="1.1" id="mdi-hand-right" width="24" height="24" viewBox="0 0 24 24"><path d="M21,6.58V18.67A3.33,3.33 0 0,1 17.67,22H11.58C10.68,22 9.83,21.64 9.21,21L2.67,14.36C2.67,14.36 3.72,13.33 3.75,13.32C3.93,13.16 4.16,13.07 4.41,13.07C4.59,13.07 4.76,13.12 4.91,13.21C4.94,13.22 8.5,15.26 8.5,15.26V5.33A1.25,1.25 0 0,1 9.75,4.08A1.25,1.25 0 0,1 11,5.33V11.17H11.83V3.25A1.25,1.25 0 0,1 13.08,2C13.78,2 14.33,2.56 14.33,3.25V11.17H15.17V4.08C15.17,3.39 15.72,2.83 16.42,2.83A1.25,1.25 0 0,1 17.67,4.08V11.17H18.5V6.58A1.25,1.25 0 0,1 19.75,5.33A1.25,1.25 0 0,1 21,6.58Z" /></svg>
